icons/svg/home-modern.svg

﻿<?xml version="1.0" encoding="utf-8"?>
<!DOCTYPE svg PUBLIC "-//W3C//DTD SVG 1.1//EN" "http://www.w3.org/Graphics/SVG/1.1/DTD/svg11.dtd">
<svg xmlns="http://www.w3.org/2000/svg" xmlns:xlink="http://www.w3.org/1999/xlink" version="1.1" baseProfile="full" width="24" height="24" viewBox="0 0 24.00 24.00" enable-background="new 0 0 24.00 24.00" xml:space="preserve">
	<path fill="#000000" fill-opacity="1" stroke-width="0.2" stroke-linejoin="round" d="M 6,21L 5.99999,8.00002C 5.99999,6.89545 6.89543,6 8,6L 16,3L 16,6.00002C 17.1046,6.00002 18,6.89545 18,8.00002L 18,21L 12,21L 12,16L 7.99999,16L 7.99999,21L 6,21 Z M 14,19L 16,19L 16,16L 14,16L 14,19 Z M 7.99999,13L 9.99999,13L 9.99998,9.00002L 7.99999,9.00001L 7.99999,13 Z M 12,13L 16,13L 16,9.00001L 12,9.00002L 12,13 Z "/>
</svg>

<svg xmlns="http://www.w3.org/2000/svg" version="1.1" baseProfile="full" width="24" height="24" viewBox="0 0 24.00 24.00" xml:space="preserve"><path fill="#000" fill-opacity="1" stroke-width=".2" stroke-linejoin="round" d="M6 21V8c0-1.105.895-2 2-2l8-3v3c1.105 0 2 .895 2 2v13h-6v-5H8v5H6zm8-2h2v-3h-2v3zm-6-6h2V9H8v4zm4 0h4V9h-4v4z"/></svg>
